!!!!SEGMENT: pl-cz--iii-176--002_elsner-jozef--hymni-statio-pange-lingua.krn
!!!cenid: 18xx:19
!!!COM: Elsner, Józef
!!!COM-rismid: pe30000957
!!!CDT: 1769/06/01-1854/04/18
!!!CNT: Polish
!!!GTL: Hymni statio
!!!OTL: Pange lingua
!!!PDT:
!!!AGN: Sacred
!!!SMS-siglum: PL-CZ
!!!SMS-shelfmark: III-176
!!!SMS-shelfwork: 002 G
!!!NIFC-rismid:
!!!URL-scan: http://repozytorium.nifc.pl/skany/pl-cz-nut--iii-176
!!!ONB-nifc:
!!!OMD: Moderato
**kern	**dynam	**kern	**text	**kern	**text	**kern	**text	**kern	**text	**dynam
*part5	*part5	*part4	*part4	*part3	*part3	*part2	*part2	*part1	*part1	*part1
*staff5	*	*staff4	*staff4	*staff3	*staff3	*staff2	*staff2	*staff1	*staff1	*
*Icello	*	*Ibass	*	*Itenor	*	*Ialto	*	*Ivox	*	*
*I"Violone	*	*I"Basso	*	*I"Tenore	*	*I"Alto	*	*I"Canto	*	*
*I'Vlne	*	*I'B	*	*I'T	*	*I'A	*	*I'C	*	*
*clefF4	*	*clefF4	*	*clefC4	*	*clefC3	*	*clefC1	*	*
*k[b-e-]	*	*k[b-e-]	*	*k[b-e-]	*	*k[b-e-]	*	*k[b-e-]	*	*
*B-:	*	*B-:	*	*B-:	*	*B-:	*	*B-:	*	*
*M4/4	*	*M4/4	*	*M4/4	*	*M4/4	*	*M4/4	*	*
*met(c)	*	*met(c)	*	*met(c)	*	*met(c)	*	*met(c)	*	*
=1	=1	=1	=1	=1	=1	=1	=1	=1	=1	=1
*	*	*2\right	*	*2\right	*	*2\right	*	*2\right	*	*
!LO:TX:a:t=Moderato	!	!LO:TX:a:t=Moderato	!	!LO:TX:a:t=Moderato	!	!LO:TX:a:t=Moderato	!	!LO:TX:a:t=Moderato	!	!
2BB-/	.	2BB-/	Pan-	2d\	Pan-	2f\	Pan-	2b-\	Pan-	.
2BB-/	.	2BB-/	-ge	2e-\	-ge	(>2g\	-ge	2b-\	-ge	.
=2	=2	=2	=2	=2	=2	=2	=2	=2	=2	=2
2BB-/	.	2BB-/	lin-	(>4.d\	lin-	4.f\)	lin-	2b-\	lin-	.
.	.	.	.	8c#X\)	.	8en\	.	.	.	.
4BB-/	.	4BB-/	-gua	4d\	-gua	4f\	-gua	4b-\	-gua	.
4r	.	4r	.	4r	.	4r	.	4r	.	.
=3	=3	=3	=3	=3	=3	=3	=3	=3	=3	=3
2AA/	.	2AA/	Pan-	2cn\	Pan-	2f\	Pan-	2ee-\	Pan-	.
2BB-/	.	2BB-/	-ge	2B-\	-ge	2f\	-ge	2dd\	-ge	.
=4	=4	=4	=4	=4	=4	=4	=4	=4	=4	=4
2F\	.	2F\	lin-	(>4.A\	lin-	2f\	lin-	(>4.cc\	lin-	.
.	.	.	.	8B-\)	.	.	.	8dd\)	.	.
4F\	.	4F\	-gua	4A\	-gua	4f\	-gua	4cc\	-gua	.
4r	.	4r	.	4r	.	4r	.	4r	.	.
=5	=5	=5	=5	=5	=5	=5	=5	=5	=5	=5
4B-\	.	4B-\	glo-	4B-\	glo-	4f\	glo-	4dd\	glo-	.
4A\	.	4A\	-ri-	4B-\	-ri-	4f\	-ri-	4dd\	-ri-	.
!	!	!LO:PB:g=original	!	!LO:PB:g=original	!	!	!	!	!	!
4G\	.	4G\	-o-	4B-\	-o-	4g\	-o-	4dd\	-o-	.
4F\	.	4F\	-si	4B-\	-si	4g\	-si	4dd\	-si	.
=6	=6	=6	=6	=6	=6	=6	=6	=6	=6	=6
!LO:PB:g=original	!	!	!	!	!	!LO:PB:g=original	!	!LO:PB:g=original	!	!
4.E-\	.	4.E-\	Cor-	4.G/	Cor-	4.g\	Cor-	4.dd\	Cor-	.
8E-\	.	8E-\	-po-	8G/	-po-	8g\	-po-	8cc\	-po-	.
4E-\	.	4E-\	-ris	4G/	-ris	4g\	-ris	4cc\	-ris	.
4E-\	.	4E-\	my-	8c\L	My-	4g\	my-	(>8ee-\L	My-	.
.	.	.	.	8e-\J	.	.	.	8cc\J)	.	.
=7	=7	=7	=7	=7	=7	=7	=7	=7	=7	=7
*2\right	*	*	*	*	*	*	*	*	*	*
2F\	.	2F\	-ste-	2d\	-ste-	2f\	-ste-	2b-\	-ste-	.
2F\	.	2F\	-ri-	(>4.A\	-ri-	(>4.e-\	-ri-	(>4.cc\	-ri-	.
.	.	.	.	8B-\)	.	8d\)	.	8dd\)	.	.
=8	=8	=8	=8	=8	=8	=8	=8	=8	=8	=8
4BB-/	.	4BB-/	-um	4B-\	-um	4f\	-um	4dd\	-um	.
8B-\	.	8B-\	San-	8B-\	San-	8b-\	San-	8b-\	San-	<
8B-\	.	8B-\	-gui-	8B-\	-gui-	8b-\	-gui-	8b-\	-gui-	.
4B-\	.	4B-\	-nis-	4B-\	-nis-	4b-\	-nis-	4b-\	-nis-	.
4B-\	.	4B-\	-que	4B-\	-que	4b-\	-que	4b-\	-que	[[
=9	=9	=9	=9	=9	=9	=9	=9	=9	=9	=9
2E-\	.	2E-\	pre-	2B-\	pre-	2g\	pre-	2gg\	pre-	[
2D\	.	2D\	-ti-	2Bn\	-ti-	2g\	-ti-	2ff\	-ti-	.
=10	=10	=10	=10	=10	=10	=10	=10	=10	=10	=10
.	.	.	.	.	.	.	.	8qff/	.	.
4C/	.	4C/	-o-	4c\	-o-	4g\	-o-	4ee-\	-o-	.
4C/	.	4C/	-si	4c\	-si	4g\	-si	4ee-\	-si	.
4C/	.	4C/	quem	4c\	quem	4g\	quem	4ee-\	quem	.
4C/	.	4C/	in	4c\	in	4g\	in	4ee-\	in	.
=11	=11	=11	=11	=11	=11	=11	=11	=11	=11	=11
!	!	!	!	!LO:PB:g=original	!	!	!	!	!	!
*	*	*	*	*	*	*^	*	*	*	*
4C/	.	4C\	mun-	4c\	mun-	4g/	4g\	mun-	4ee-\	mun-	.
4D/	.	4D\	-di	4Bn\	-di	4g/	4f\	-di	4dd\	-di	.
4E-/	.	4E-\	pre-	4c\	pre-	4g/	4e-\	pre-	4cc\	pre-	.
4En/	.	4E-\	-ti-	4c\	-ti-	4g/	4g\	-ti-	4b-\	-ti-	.
*	*	*	*	*	*	*v	*v	*	*	*	*
=12	=12	=12	=12	=12	=12	=12	=12	=12	=12	=12
!	!	!LO:PB:g=original	!	!	!	!	!	!	!	!
2.F\	.	2.F\	-um	2.c\	-um	2.f\	-um	2.a\	-um	.
4r	.	4r	.	4r	.	4r	.	4r	.	.
=13	=13	=13	=13	=13	=13	=13	=13	=13	=13	=13
!LO:PB:g=original	!	!	!	!	!	!LO:PB:g=original	!	!LO:PB:g=original	!	!
!	!	!	!	!	!	!	!	!LO:TX:a:t=dolce	!	!
2E-X\	.	2E-X\	fru-	2A\	fru-	2f\	fru-	2cc\	fru-	.
(>4D\	.	(<4D/	-ctus	2B-\	-ctus	2f\	-ctus	(>4b-\	-ctus	.
4BB-\)	.	4BB-/)	.	.	.	.	.	4dd\)	.	.
=14	=14	=14	=14	=14	=14	=14	=14	=14	=14	=14
2AA/	.	2AA/	ven-	2c\	ven-	2f\	ven-	(>4.ff\	ven-	.
.	.	.	.	.	.	.	.	8ee-\)	.	.
2BB-/	.	2BB-/	-tris	2B-\	-tris	2f\	-tris	2dd\	-tris	.
=15	=15	=15	=15	=15	=15	=15	=15	=15	=15	=15
2E-\	.	2E-\	ge-	2A\	ge-	2f\	ge-	2cc\	ge-	.
(>4D\	.	(<4D/	-ne-	2B-\	-ne-	2f\	-ne-	(>4b-\	-ne-	.
4BB-\)	.	4BB-/)	.	.	.	.	.	4dd\)	.	.
=16	=16	=16	=16	=16	=16	=16	=16	=16	=16	=16
2AA/	.	2AA/	-ro-	2c\	-ro-	2f\	-ro-	(>4.ff\	-ro-	.
.	.	.	.	.	.	.	.	8ee-\)	.	.
2BB-/	.	2BB-/	-si	2B-\	-si	2f\	-si	2dd\	-si	.
.	.	.	.	.	.	.	.	.	.	f
=17	=17	=17	=17	=17	=17	=17	=17	=17	=17	=17
!	!LO:DY:b	!LO:TX:t=P:złe wyswietlanie tekstu:problem	!	!	!	!	!	!	!	!
!	!LO:DY:rj	!	!	!	!	!	!	!	!	!
2.GG/ 2.G/	f	2.GG\ 2.G\	-rex	2.B-\	rex	2.b-\	rex	2.dd\	rex	.
4r	.	4r	.	4r	.	4r	.	4r	.	.
=18	=18	=18	=18	=18	=18	=18	=18	=18	=18	=18
2.E-\	.	2.E-\	rex	2.B-\	rex	2.b-\	rex	2.gg\	rex	.
4E-\	.	4E-\	ef-	(>4c\	ef-	4g\	ef-	4ee-\	ef-	.
=19	=19	=19	=19	=19	=19	=19	=19	=19	=19	=19
2F\	.	2F\	-fu-	4c\)	-fu-	2f\	-fu-	4ee-\	-fu-	.
.	.	.	.	4B-\	.	.	.	4dd\	.	.
!	!	!	!	!LO:PB:g=original	!	!	!	!	!	!
2F\	.	2F\	-dit	(>4d\	-dit	2f\	-dit	4ff\	.	.
.	.	.	.	8c\L	.	.	.	8ee-\L	-dit	.
.	.	.	.	8B-\J)	.	.	.	8dd\J	.	.
=20	=20	=20	=20	=20	=20	=20	=20	=20	=20	=20
!	!	!LO:PB:g=original	!	!	!	!	!	!	!	!
2F\	.	2F\	gen-	(>4B-\	Gen-	(>2.f\	Gen-	2.cc\	gen-	.
.	.	.	.	8AL\	.	.	.	.	.	.
.	.	.	.	8G/J)	.	.	.	.	.	.
2F\	.	2F\	-ti-	4A\	.	.	.	.	.	.
.	.	.	.	4A\	-ti-	4e-\)	-ti-	4cc\	-ti-	.
=21	=21	=21	=21	=21	=21	=21	=21	=21	=21	=21
!LO:PB:g=original	!	!	!	!	!	!	!	!LO:PB:g=original	!	!
2.BB-/	.	2.BB-/	-um	2.B-\	-um	2.d\	-um	2.b-\	-um	.
4r	.	4r	.	4r	.	4r	.	4r	.	.
=22	=22	=22	=22	=22	=22	=22	=22	=22	=22	=22
2F\	.	2F\	Ver-	2A\	Ver-	2f\	Ver-	2cc\	Ver-	.
2F\	.	2F\	-bum	2B-\	-bum	2f\	-bum	2dd\	-bum	.
=23	=23	=23	=23	=23	=23	=23	=23	=23	=23	=23
!	!	!	!	!	!	!LO:PB:g=original	!	!	!	!
2F\	.	2F\	ca-	(>4.A\	ca-	2f\	ca-	(>4.cc\	Ca-	.
.	.	.	.	8G#X\)	.	.	.	8bn\)	.	.
4F\	.	4F\	-ro	4A\	-ro	4f\	-ro	4cc\	-ro	.
4r	.	4r	.	4r	.	4r	.	4r	.	.
=24	=24	=24	=24	=24	=24	=24	=24	=24	=24	=24
2D\	.	2D\	Ver-	2A\	Ver-	2f#X\	Ver-	2dd\	Ver-	.
2D\	.	2D\	-bum	2B-\	-bum	2g\	-bum	2dd\	-bum	.
=25	=25	=25	=25	=25	=25	=25	=25	=25	=25	=25
2D\	.	2D\	ca-	(>4.A\	ca-	(>4.f#X\	ca-	2dd\	Ca-	.
.	.	.	.	8B-\)	.	8g\)	.	.	.	.
4D\	.	4D\	-ro	4A\	-ro	4f#\	-ro	4dd\	-ro	.
4r	.	4r	.	4r	.	4r	.	4r	.	.
=26	=26	=26	=26	=26	=26	=26	=26	=26	=26	=26
!	!	!	!	!LO:LB:g=original	!	!	!	!	!	!
2G\	.	2G\	pa-	2B-\	pa-	2g\	pa-	2dd\	Pa-	.
2F\	.	2Fn\	-nem	2B-\	-nem	2g\	-nem	(>2dd\	-nem	.
=27	=27	=27	=27	=27	=27	=27	=27	=27	=27	=27
2En\	.	2En\	ve-	2B-\	ve-	2g\	ve-	4.dd\	ve-	.
.	.	.	.	.	.	.	.	8cc\)	.	.
2E\	.	2E\	-rum	2B-\	-rum	2g\	-rum	2cc\	-rum	.
=28	=28	=28	=28	=28	=28	=28	=28	=28	=28	=28
!	!	!LO:PB:g=original	!	!	!	!	!	!	!	!
2F\	.	2F\	ver-	2A\	ver-	2f\	ver-	2cc\	ver-	.
2En\	.	2En\	-bo	2A\	-bo	2f\	-bo	2cc\	-bo	.
=29	=29	=29	=29	=29	=29	=29	=29	=29	=29	=29
2D\	.	2D\	car-	2A\	car-	2f\	car-	(>4.cc\	car-	.
.	.	.	.	.	.	.	.	8b-\)	.	.
2D\	.	2D\	-nem	2A\	-nem	2f\	-nem	2b-\	-nem	.
=30	=30	=30	=30	=30	=30	=30	=30	=30	=30	=30
!	!	!	!	!	!	!	!	!LO:PB:g=original	!	!
2En\	.	2En\	ef-	2G/	ef-	2en\	ef-	2b-\	ef-	.
2D\	.	2D\	-fi-	2G/	-fi-	2e\	-fi-	2b-\	-fi-	.
=31	=31	=31	=31	=31	=31	=31	=31	=31	=31	=31
!LO:PB:g=original	!	!	!	!	!	!LO:LB:g=original	!	!	!	!
2C#X/	.	2C#X/	-cit	2G/	-cit	2en\	-cit	2a\	-cit	.
4C#/	.	4C#/	fit-	4G/	fit-	4e\	fit-	4a\	fit-	.
4C#/	.	4C#/	-que	4G/	-que	4e\	-que	4a\	-que	.
=32	=32	=32	=32	=32	=32	=32	=32	=32	=32	=32
2D\	.	2D/	san-	2F/	San-	2f\	san-	2a\	san-	.
2D\	.	2D/	-guis	2F/	-guis	2f\	-guis	2a\	-guis	.
=33	=33	=33	=33	=33	=33	=33	=33	=33	=33	=33
2BB-/	.	2BB-/	Chri-	2F/	Chri-	2d\	Chri-	(>2dd\	Chri-	.
2BB-/	.	2BB-/	-sti	2G/	-sti	2d\	-sti	2dd\)	-sti	.
=34	=34	=34	=34	=34	=34	=34	=34	=34	=34	=34
!	!	!LO:LB:g=original	!	!LO:PB:g=original	!	!	!	!	!	!
.	.	.	.	.	.	.	.	8qdd/	.	.
4AA/	.	4AA/	me-	4A\	me-	4en\	me-	4cc#X\	me-	.
4AA/	.	4AA/	-rum	4A\	-rum	4e\	-rum	4cc#\	-rum	.
4A\	.	4A\	et	4A\	et	4e\	et	4cc#\	et	.
4G\	.	4G\	si	4A\	si	4e\	si	4cc#\	si	.
=35	=35	=35	=35	=35	=35	=35	=35	=35	=35	=35
4F\	.	4F\	sen-	4A\	sen-	4d\	sen-	4dd\	sen-	.
4G\	.	4G\	-sus	4B-X\	-sus	4g\	-sus	4dd\	-sus	.
4A\	.	4A\	de-	4A\	de-	4f\	de-	4dd\	de-	.
4A\	.	4A\	-fi-	4A\	-fi-	4en\	-fi-	4cc#X\	-fi-	.
=36	=36	=36	=36	=36	=36	=36	=36	=36	=36	=36
2D/	.	2D/	-cit	2A\	-cit	2f\	-cit	2dd\	-cit	>
4C/	.	4C/	et	4A\	et	4f#X\	et	4ee-X\	et	.
4C/	.	4C/	si	4A\	si	4f#\	si	4ee-\	si	]]
=37	=37	=37	=37	=37	=37	=37	=37	=37	=37	=37
4C/	.	4C/	sen-	4A\	sen-	4f#X\	sen-	4ee-\	sen-	]
4BB-/	.	4BB-/	-sus	4B-X\	-sus	4g\	-sus	4dd\	-sus	.
!	!	!	!	!	!	!LO:PB:g=original	!	!LO:TX:t=P:"de-fi-cit" zapisane niżej niż poprzednie słowa:problem	!	!
4E-X\	.	4E-\	de-	4c\	de-	4g\	de-	4cc\	de-	.
4En\	.	4En\	-fi-	4c\	-fi-	4g\	-fi-	4b-\	-fi-	.
=38	=38	=38	=38	=38	=38	=38	=38	=38	=38	=38
2.F\	.	2.F\	-cit	2.c\	-cit	2.fn\	-cit	2.a\	-cit	.
4r	.	4r	.	4r	.	4r	.	4r	.	.
=39	=39	=39	=39	=39	=39	=39	=39	=39	=39	=39
!	!LO:DY:b	!	!	!	!	!	!	!LO:LB:g=original	!	!LO:DY:a
!	!LO:DY:rj	!	!	!	!	!	!	!	!	!
2E-\	p	2E-\	ad	2A\	Ad	2f\	ad	2cc\	ad	p
!	!	!	!	!	!	!	!	!LO:TX:a:t=dol&colon;	!	!
(>4D\	.	(>4D\	fir-	2B-\	fir-	2f\	fir-	(>4b-\	fir-	.
4BB-\)	.	4BB-/)	.	.	.	.	.	4dd\)	.	.
=40	=40	=40	=40	=40	=40	=40	=40	=40	=40	=40
!LO:PB:g=original	!	!LO:PB:g=original	!	!	!	!	!	!	!	!
2AA/	.	2AA/	-men-	2c\	-men-	2f\	-men-	(>4.ff\	-men-	.
.	.	.	.	.	.	.	.	8ee-\)	.	.
2BB-/	.	2BB-/	-dum	2B-\	-dum	2f\	-dum	2dd\	-dum	.
=41	=41	=41	=41	=41	=41	=41	=41	=41	=41	=41
!	!	!	!	!LO:PB:g=original	!	!	!	!	!	!
2E-\	.	2E-\	cor	2A\	cor	2f\	cor	2cc\	cor	.
(>4D\	.	(>4D\	sin-	2B-\	sin-	2f\	sin-	(>4b-\	sin-	.
4BB-\)	.	4BB-/)	.	.	.	.	.	4dd\)	.	.
=42	=42	=42	=42	=42	=42	=42	=42	=42	=42	=42
2AA/	.	2AA/	-ce-	2c\	-ce-	2f\	-ce-	(>4.ff\	-ce-	.
.	.	.	.	.	.	.	.	8ee-\)	.	.
2BB-/	.	2BB-/	-rum	2B-\	-rum	2f\	-rum	4dd\	-rum	.
.	.	.	.	.	.	.	.	4r	.	.
=43	=43	=43	=43	=43	=43	=43	=43	=43	=43	=43
2.GG/ 2.G/	.	2.GG\ 2.G\	so-	2.B-\	so-	2.b-\	so-	2.dd\	so-	.
4GG/ 4G/	.	4GG\ 4G\	-la	4B-\	-la	4b-\	-la	4dd\	-la	.
=44	=44	=44	=44	=44	=44	=44	=44	=44	=44	=44
4E-/	.	4E-\	so-	4B-\	so-	4g\	so-	4gg\	so-	.
4D/	.	4D\	-la	4f\	-la	4f\	-la	4b-\	-la	.
4C/	.	4C\	fi-	(>4e-\	fi-	(>4g\	fi-	(>4cc\	fi-	.
4C/	.	4BB-\	-des	8d\L)	-des	8f\L	-des	8dd\L	-des	.
.	.	.	.	8c\J	.	8e-\J)	.	8ee-\J)	.	.
=45	=45	=45	=45	=45	=45	=45	=45	=45	=45	=45
!	!	!	!	!	!	!LO:PB:g=original	!	!	!	!
2F\	.	2F\	suf-	2B-\	suf-	2f\	suf-	2dd\	suf-	.
2F\	.	2F\	-fi-	2A\	-fi-	2f\	-fi-	2cc\	-fi-	.
=46	=46	=46	=46	=46	=46	=46	=46	=46	=46	=46
!	!	!	!	!	!	!	!	!LO:PB:g=original	!	!
1En\;	.	2En\;	-cit	1B-\;	-cit	1g\;	-cit	1cc\;	-cit	.
.	.	2r;	.	.	.	.	.	.	.	.
=47	=47	=47	=47	=47	=47	=47	=47	=47	=47	=47
!	!	!LO:PB:g=original	!	!	!	!	!	!	!	!
2E-X\	.	2E-\	ad	2A\	ad	2f\	ad	2cc\	ad	.
4D\	.	(>4D\	fir-	2B-\	fir-	2f\	fir-	4b-\	fir-	.
4BB-\	.	4BB-/)	.	.	.	.	.	4dd\	.	.
=48	=48	=48	=48	=48	=48	=48	=48	=48	=48	=48
2AA/	.	2AA/	-men-	2c\	-men-	2f\	-men-	(>4.ff\	-men-	.
.	.	.	.	.	.	.	.	8ee-\)	.	.
2BB-/	.	2BB-/	-dum	2B-\	-dum	2f\	-dum	2dd\	-dum	.
=49	=49	=49	=49	=49	=49	=49	=49	=49	=49	=49
!LO:LB:g=original	!	!	!	!	!	!	!	!	!	!
2E-\	.	2E-\	cor	2A\	cor	2f\	cor	(>2cc\	cor	.
4D\	.	(>4D\	sin-	2B-\	sin-	2f\	sin-	4b-\)	.	.
4BB-\	.	4BB-/)	.	.	.	.	.	4dd\	sin-	.
=50	=50	=50	=50	=50	=50	=50	=50	=50	=50	=50
!	!	!	!	!LO:PB:g=original	!	!	!	!	!	!
2AA/	.	2AA/	-ce-	2c\	-ce-	2f\	-ce-	(>4.ff\	-ce-	.
.	.	.	.	.	.	.	.	8ee-\	.	.
2BB-/	.	2BB-/	-rum	2B-\	-rum	2f\	-rum	2dd\)	-rum	.
=51	=51	=51	=51	=51	=51	=51	=51	=51	=51	=51
2.GG/ 2.G/	.	2.GG\ 2.G\	so-	2.B-\	so-	2.b-\	so-	2.dd\	so-	.
4GG/ 4G/	.	4GG\ 4G\	-la	4B-\	-la	4b-\	-la	4dd\	-la	.
=52	=52	=52	=52	=52	=52	=52	=52	=52	=52	=52
4E-/	.	4E-\	so-	(>4B-\	so-	(>4g\	so-	4gg\	so-	.
4D/	.	4D\	-la	4f\)	-la	4f\)	-la	4bn\	-la	.
4C/	.	4C/	fi-	4e-\	fi-	4g\	fi-	(>4cc\	fi-	.
4C/	.	4C/	-des	8d\L	-des	8f\L	-des	8dd\L	-des	.
.	.	.	.	8c\J	.	8e-\J	.	8ee-\J)	.	.
=53	=53	=53	=53	=53	=53	=53	=53	=53	=53	=53
2F\	.	2F\	suf-	2B-\	suf-	2.f\	suf-	2dd\	suf-	.
2F\	.	2F\	-fi-	2A\	-fi-	.	.	2cc\	-fi-	.
.	.	.	.	.	.	4e-\	-fi-	.	.	.
=54	=54	=54	=54	=54	=54	=54	=54	=54	=54	=54
!	!	!LO:PB:g=original	!	!	!	!LO:PB:g=original	!	!LO:PB:g=original	!	!
1G\;	.	1G\;	-cit	1B-\;	-cit	1d\;	-cit	1b-\;	-cit	.
=55	=55	=55	=55	=55	=55	=55	=55	=55	=55	=55
!	!	!	!	!	!	!	!	!	!	!LO:DY:a
2.E-\	.	2.E-\	so-	2.B-\	so-	2.b-\	so-	2.gg\	so-	f
4E-\	.	4E-\	-la	(>4c\	-la	4g\	-la	(>4ee-\	-la	.
=56	=56	=56	=56	=56	=56	=56	=56	=56	=56	=56
2F\	.	2F\	fi-	4c\)	fi-	2f\	fi-	4ee-\)	fi-	.
.	.	.	.	4B-\	.	.	.	4dd\	.	.
2F\	.	2F\	-des	(>4d\	-des	2f\	-des	4ff\	-des	.
.	.	.	.	8c\L	.	.	.	8ee-\L	.	.
.	.	.	.	8B-\J	.	.	.	8dd\J	.	.
=57	=57	=57	=57	=57	=57	=57	=57	=57	=57	=57
2F\	.	2F\	suf-	4B-\)	suf-	2.f\	suf-	2.cc\	suf-	.
.	.	.	.	8AL\	.	.	.	.	.	.
.	.	.	.	8G/J	.	.	.	.	.	.
!	!	!	!	!LO:PB:g=original	!	!	!	!	!	!
2F\	.	2F\	-fi-	4A\	.	.	.	.	.	.
.	.	.	.	4A\	-fi-	4e-\	-fi-	(>4cc\	-fi-	.
=58	=58	=58	=58	=58	=58	=58	=58	=58	=58	=58
2BB-/	.	2BB-/	-cit	2B-\	-cit	2d\	-cit	2b-\)	-cit	.
2r	.	2r	.	2r	.	2r	.	2r	.	.
=59	=59	=59	=59	=59	=59	=59	=59	=59	=59	=59
0BB-/	.	0BB-/	A-	1d\	A-	1f\	A-	(>0b-\	A-	.
.	.	.	.	2e-\	.	2g\	.	.	.	.
.	.	.	.	2d\	.	2f\	.	.	.	.
=60	=60	=60	=60	=60	=60	=60	=60	=60	=60	=60
0BB-/	.	0BB-/	-men	0d\	-men	0f\	-men	0b-\)	-men	.
==	==	==	==	==	==	==	==	==	==	==
*-	*-	*-	*-	*-	*-	*-	*-	*-	*-	*-
!!!system-decoration: s1,s2,s3,s4,s5
!!!RDF**kern: > = above
!!!RDF**kern: < = below
!!!ENC: Leszek Kubiak
!!!END: data 2020-03-06
!!!ENC: Berenika Jozajtis
!!!END: 2020-02-04
